public/icons/checkmark.svg

<svg width="88" height="88" viewBox="0 0 88 88" fill="none" xmlns="http://www.w3.org/2000/svg">
<path fill-rule="evenodd" clip-rule="evenodd" d="M14.1372 25.52C14.2032 28.8596 12.386 33.374 10.0232 35.7324C8.93654 36.8185 8.07451 38.108 7.48637 39.5274C6.89824 40.9467 6.59552 42.468 6.59552 44.0044C6.59552 45.5408 6.89824 47.0621 7.48637 48.4814C8.07451 49.9008 8.93654 51.1903 10.0232 52.2764C12.3552 54.5996 14.0712 58.63 14.1372 61.9212C14.1988 64.834 15.3384 67.7292 17.5604 69.9468C19.6099 72.0017 22.3526 73.2178 25.2516 73.3568C28.732 73.5328 33.2904 75.5568 35.7544 78.0208C36.8404 79.1068 38.1297 79.9683 39.5486 80.556C40.9676 81.1438 42.4884 81.4463 44.0242 81.4463C45.5601 81.4463 47.0809 81.1438 48.4998 80.556C49.9187 79.9683 51.208 79.1068 52.294 78.0208C54.758 75.5568 59.3164 73.5328 62.7968 73.3568C65.6958 73.2178 68.4385 72.0017 70.488 69.9468C72.6252 67.8126 73.8508 64.9323 73.9068 61.9124C73.9728 58.63 75.6668 54.626 77.9944 52.3028C80.1953 50.1089 81.4344 47.1306 81.4394 44.0231C81.4444 40.9155 80.2146 37.9333 78.0208 35.7324C75.6624 33.3784 73.8408 28.8596 73.9112 25.5244C73.9444 23.9497 73.6581 22.3846 73.0698 20.9236C72.4814 19.4626 71.6032 18.1359 70.488 17.0236C69.3321 15.8651 67.9453 14.9627 66.4179 14.3752C64.8904 13.7877 63.2564 13.5282 61.622 13.6136C58.4804 13.772 54.516 12.2496 52.294 10.0232C51.2079 8.93654 49.9184 8.07451 48.499 7.48637C47.0797 6.89824 45.5584 6.59552 44.022 6.59552C42.4856 6.59552 40.9643 6.89824 39.545 7.48637C38.1256 8.07451 36.8361 8.93654 35.75 10.0232C33.5324 12.2452 29.5636 13.772 26.422 13.6136C24.7884 13.5289 23.1552 13.7886 21.6285 14.3761C20.1019 14.9636 18.7158 15.8656 17.5604 17.0236C16.4458 18.1354 15.5679 19.4613 14.9795 20.9216C14.3912 22.3818 14.1047 23.9461 14.1372 25.52ZM57.3804 29.1544C57.8858 29.4348 58.331 29.8121 58.6906 30.2646C59.0501 30.7172 59.317 31.2361 59.4759 31.7918C59.6349 32.3475 59.6828 32.9291 59.6169 33.5033C59.551 34.0775 59.3727 34.6331 59.092 35.1384L46.9128 57.0592C46.5949 57.6546 46.1467 58.1704 45.6016 58.5684C44.8063 59.1429 43.842 59.4354 42.8616 59.3995C41.8812 59.3636 40.9408 59.0015 40.1896 58.3704L28.05 48.6596C27.5987 48.2985 27.223 47.852 26.9443 47.3457C26.6656 46.8393 26.4893 46.283 26.4256 45.7086C26.3618 45.1341 26.4119 44.5527 26.5728 43.9976C26.7338 43.4425 27.0025 42.9245 27.3636 42.4732C27.7247 42.0219 28.1712 41.6462 28.6776 41.3675C29.1839 41.0888 29.7402 40.9125 30.3147 40.8488C30.8891 40.785 31.4705 40.8351 32.0256 40.996C32.5807 41.157 33.0987 41.4257 33.55 41.7868L41.7032 48.312L51.3964 30.8616C51.6772 30.3566 52.0547 29.9118 52.5074 29.5527C52.9601 29.1936 53.4791 28.9272 54.0348 28.7686C54.5905 28.6101 55.1719 28.5626 55.746 28.6288C56.32 28.695 56.8754 28.8736 57.3804 29.1544Z" fill="#132136"/>
</svg>

<svg xmlns="http://www.w3.org/2000/svg" width="88" height="88" fill="none"><path fill="#132136" fill-rule="evenodd" d="M14.137 25.52c.066 3.34-1.751 7.854-4.114 10.212a11.695 11.695 0 0 0 0 16.544c2.332 2.324 4.048 6.354 4.114 9.645a11.65 11.65 0 0 0 3.423 8.026 11.65 11.65 0 0 0 7.692 3.41c3.48.176 8.038 2.2 10.502 4.664a11.695 11.695 0 0 0 16.54 0c2.464-2.464 7.022-4.488 10.503-4.664a11.65 11.65 0 0 0 7.691-3.41 11.66 11.66 0 0 0 3.419-8.035c.066-3.282 1.76-7.286 4.087-9.61a11.717 11.717 0 0 0 .027-16.57c-2.359-2.354-4.18-6.872-4.11-10.208a11.66 11.66 0 0 0-3.423-8.5 11.67 11.67 0 0 0-8.866-3.41c-3.142.158-7.106-1.364-9.328-3.59a11.695 11.695 0 0 0-16.544 0c-2.218 2.221-6.186 3.748-9.328 3.59a11.67 11.67 0 0 0-8.862 3.41 11.66 11.66 0 0 0-3.423 8.496m43.243 3.634a4.4 4.4 0 0 1 1.712 5.984L46.912 57.06a4.5 4.5 0 0 1-1.31 1.51 4.404 4.404 0 0 1-5.412-.199l-12.14-9.71a4.4 4.4 0 1 1 5.5-6.873l8.153 6.525 9.693-17.45a4.4 4.4 0 0 1 5.984-1.708" clip-rule="evenodd"/></svg>
